rospo-icon-theme-classic-common/24x24/apps/com.github.artemanufrij.playmymusic.svg

<svg height="24" viewBox="0 0 24 24" width="24" xmlns="http://www.w3.org/2000/svg"><path d="m11.5 2.5000006c-5.77471 0-10.50000012 4.7231806-10.5 10.4988054v.0059.0059c.00352.583659 0 1.249206 0 1.822397v.0039.0039c.010667 2.742886 1.7644502 4.628971 3.2617188 5.523837 1.4610231.873468 2.8850353 1.101373 2.8867187 1.101643h.00195c1.5038934.257257 2.8505495-1.010262 2.8496125-2.431884v-7.068871c.000147-1.305689-1.1030437-2.5046837-2.5097656-2.4650209-.00524.0000914-.010382-.0001239-.015625 0l-.064453.00195-.0625.00586-.013672.00391c1.0380091-1.2580205 2.5515335-2.0118647 4.1660156-2.0118647 1.614482 0 3.128006.7538443 4.166016 2.0118643-.000062-.0000046-.01367-.00391-.01367-.00391l-.05274-.00391-.05078-.00195c-.0052-.0001822-.01043.000148-.01563 0-1.435149-.0578029-2.533341 1.1570823-2.533196 2.4630713v7.068871c-.000936 1.422263 1.346852 2.690632 2.851562 2.431817.0017-.00027 1.425696-.228175 2.886719-1.101643 1.49725-.894855 3.251108-2.780906 3.261719-5.523837v-.0039-.0039c0-.573143-.0035-1.238539 0-1.822397v-.0059-.0059c0-5.7754809-4.725261-10.4987384-10.5-10.4987384z" opacity=".2"/><path d="m11.5 1.9999997c-5.77471 0-10.50000012 4.7231806-10.5 10.4988063v.0059.0059c.00352.583659 0 1.249206 0 1.822397v.0039.0039c.010667 2.742886 1.7644502 4.628971 3.2617188 5.523837 1.4610231.873468 2.8850353 1.101373 2.8867187 1.101643h.00195c1.5038934.257257 2.8505495-1.010262 2.8496125-2.431884v-7.068871c.000147-1.305689-1.1030437-2.5046846-2.5097656-2.4650218-.00524.0000914-.010382-.0001239-.015625 0l-.064453.00195-.0625.00586-.013672.00391c1.0380091-1.2580205 2.5515335-2.0118647 4.1660156-2.0118647 1.614482 0 3.128006.7538443 4.166016 2.0118643-.000062-.0000046-.01367-.00391-.01367-.00391l-.05274-.00391-.05078-.00195c-.0052-.0001822-.01043.000148-.01563 0-1.435149-.0578029-2.533341 1.1570832-2.533196 2.4630722v7.068871c-.000936 1.422263 1.346852 2.690632 2.851562 2.431817.0017-.00027 1.425696-.228175 2.886719-1.101643 1.49725-.894855 3.251108-2.780906 3.261719-5.523837v-.0039-.0039c0-.573143-.0035-1.238539 0-1.822397v-.0059-.0059c0-5.7754818-4.725261-10.4987393-10.5-10.4987393z" fill="#0093b8"/><path d="m11.5 4.5005009c-4.6944204 0-8.5000001 3.8035-8.5 8.4977991.00362.6006 0 1.2693 0 1.8339.00754 1.9386 1.1813939 3.1535 2.2871094 3.8143 1.1057149.661 2.1992187.8476 2.1992187.8476.2690573.047.5138612-.1716.5136719-.4589v-7.07015c.0000294-.2617-.2048375-.4719-.453125-.4649-.00846-.0002-.016929-.0002-.025391 0 0 0-1.1034871.096-2.2207032.6699-.4267358.2194-.8627518.5248-1.2402343.9238-.0605465-4.5938491 3.6044637-7.5933491 7.4394535-7.5933491 3.834989 0 7.5 2.9995 7.439453 7.5933491-.377482-.3991-.813498-.7044-1.240234-.9238-1.117216-.5739-2.220703-.6699-2.220703-.6699-.0085-.0003-.01689-.0003-.02539 0-.248287-.01-.453154.2033-.453125.4649v7.07015c-.000189.2873.244615.5059.513672.4589 0 0 1.093504-.1866 2.199219-.8476 1.105715-.6608 2.279609-1.8757 2.287109-3.8143 0-.5646-.0036-1.2332 0-1.8339 0-4.6941991-3.80558-8.4977991-8.500001-8.4977991z" opacity=".2"/><path d="m11.5 4.0005c-4.6944204 0-8.5000001 3.8035-8.5 8.4978.00362.6006 0 1.2693 0 1.8339.00754 1.9386 1.1813939 3.1535 2.2871094 3.8143 1.1057149.661 2.1992187.8476 2.1992187.8476.2690573.047.5138612-.1716.5136719-.4589v-7.07015c.0000294-.2617-.2048375-.4719-.453125-.4649-.00846-.0002-.016929-.0002-.025391 0 0 0-1.1034871.096-2.2207032.6699-.4267358.2194-.8627518.5248-1.2402343.9238-.0605465-4.59385 3.6044637-7.59335 7.4394535-7.59335 3.834989 0 7.5 2.9995 7.439453 7.59335-.377482-.3991-.813498-.7044-1.240234-.9238-1.117216-.5739-2.220703-.6699-2.220703-.6699-.0085-.0003-.01689-.0003-.02539 0-.248287-.01-.453154.2033-.453125.4649v7.07015c-.000189.2873.244615.5059.513672.4589 0 0 1.093504-.1866 2.199219-.8476 1.105715-.6608 2.279609-1.8757 2.287109-3.8143 0-.5646-.0036-1.2332 0-1.8339 0-4.6942-3.80558-8.4978-8.500001-8.4978z" fill="#fff"/><path d="m11.5 2c-5.77471 0-10.50000012 4.7224212-10.5 10.498047v.005859.00586c.0009432.156393-.00013543.323481 0 .488281-.00000012-5.7756252 4.72529-10.498047 10.5-10.498047 5.774739 0 10.5 4.7225657 10.5 10.498047.000135-.164812-.000938-.331835 0-.488281v-.00586-.005859c0-5.7754819-4.725261-10.498047-10.5-10.498047zm-3.7089844 7.0234375c-.1603245.1537115-.3138248.3147214-.4570312.4882813l.0136718-.0039063.0625-.0058594.0644532-.0019531c.005243-.0001239.010385.0000914.015625 0 1.4067219-.0396628 2.5099126 1.159155 2.5097656 2.464844v-.5c.000136-1.209773-.9509186-2.3151998-2.2089844-2.4414065zm7.4199224.0019531c-1.272041.1216085-2.211072 1.2343594-2.210938 2.4394534v.5c-.000145-1.305989 1.098054-2.5206938 2.533203-2.4628909.0052.000148.010425-.0001822.015625 0l .050781.0019531.052735.0039063s.01361.0039016.013672.0039063c-.142612-.1728381-.295487-.3331709-.455078-.4863282z" fill="#fff" opacity=".2"/></svg>

<svg xmlns="http://www.w3.org/2000/svg" width="24" height="24" version="1.1" viewBox="0 0 24 24">
 <path style="opacity:0.2" d="m 11.5,2.5000006 c -5.77471,0 -10.50000012,4.7231806 -10.5,10.4988054 l 0,0.0059 0,0.0059 c 0.00352,0.583659 0,1.249206 0,1.822397 l 0,0.0039 0,0.0039 c 0.010667,2.742886 1.7644502,4.628971 3.2617188,5.523837 1.4610231,0.873468 2.8850353,1.101373 2.8867187,1.101643 l 0.00195,0 C 8.6542809,21.72354 10.000937,20.456021 10,19.034399 l 0,-7.068871 c 1.47e-4,-1.305689 -1.1030437,-2.5046837 -2.5097656,-2.4650209 -0.00524,9.14e-5 -0.010382,-1.239e-4 -0.015625,0 l -0.064453,0.00195 -0.0625,0.00586 -0.013672,0.00391 C 8.3719935,8.2542066 9.8855179,7.5003624 11.5,7.5003624 c 1.614482,0 3.128006,0.7538443 4.166016,2.0118643 -6.2e-5,-4.6e-6 -0.01367,-0.00391 -0.01367,-0.00391 l -0.05274,-0.00391 -0.05078,-0.00195 c -0.0052,-1.822e-4 -0.01043,1.48e-4 -0.01563,0 C 14.098047,9.4446538 12.999855,10.659539 13,11.965528 l 0,7.068871 c -9.36e-4,1.422263 1.346852,2.690632 2.851562,2.431817 0.0017,-2.7e-4 1.425696,-0.228175 2.886719,-1.101643 C 20.235531,19.469718 21.989389,17.583667 22,14.840736 l 0,-0.0039 0,-0.0039 c 0,-0.573143 -0.0035,-1.238539 0,-1.822397 l 0,-0.0059 0,-0.0059 C 22,7.2232581 17.274739,2.5000006 11.5,2.5000006 Z"/>
 <path style="fill:#0093b8" d="m 11.5,1.9999997 c -5.77471,0 -10.50000012,4.7231806 -10.5,10.4988063 l 0,0.0059 0,0.0059 c 0.00352,0.583659 0,1.249206 0,1.822397 l 0,0.0039 0,0.0039 c 0.010667,2.742886 1.7644502,4.628971 3.2617188,5.523837 1.4610231,0.873468 2.8850353,1.101373 2.8867187,1.101643 l 0.00195,0 C 8.6542809,21.22354 10.000937,19.956021 10,18.534399 l 0,-7.068871 c 1.47e-4,-1.305689 -1.1030437,-2.5046846 -2.5097656,-2.4650218 -0.00524,9.14e-5 -0.010382,-1.239e-4 -0.015625,0 l -0.064453,0.00195 -0.0625,0.00586 -0.013672,0.00391 C 8.3719935,7.7542057 9.8855179,7.0003615 11.5,7.0003615 c 1.614482,0 3.128006,0.7538443 4.166016,2.0118643 -6.2e-5,-4.6e-6 -0.01367,-0.00391 -0.01367,-0.00391 l -0.05274,-0.00391 -0.05078,-0.00195 c -0.0052,-1.822e-4 -0.01043,1.48e-4 -0.01563,0 C 14.098047,8.9446529 12.999855,10.159539 13,11.465528 l 0,7.068871 c -9.36e-4,1.422263 1.346852,2.690632 2.851562,2.431817 0.0017,-2.7e-4 1.425696,-0.228175 2.886719,-1.101643 C 20.235531,18.969718 21.989389,17.083667 22,14.340736 l 0,-0.0039 0,-0.0039 c 0,-0.573143 -0.0035,-1.238539 0,-1.822397 l 0,-0.0059 0,-0.0059 C 22,6.7232572 17.274739,1.9999997 11.5,1.9999997 Z"/>
 <path style="opacity:0.2" d="m 11.5,4.5005009 c -4.6944204,0 -8.5000001,3.8035 -8.5,8.4977991 0.00362,0.6006 0,1.2693 0,1.8339 0.00754,1.9386 1.1813939,3.1535 2.2871094,3.8143 1.1057149,0.661 2.1992187,0.8476 2.1992187,0.8476 C 7.7553854,19.5411 8.0001893,19.3225 8,19.0352 l 0,-7.07015 c 2.94e-5,-0.2617 -0.2048375,-0.4719 -0.453125,-0.4649 -0.00846,-2e-4 -0.016929,-2e-4 -0.025391,0 0,0 -1.1034871,0.096 -2.2207032,0.6699 -0.4267358,0.2194 -0.8627518,0.5248 -1.2402343,0.9238 C 4,8.5000009 7.6650102,5.5005009 11.5,5.5005009 c 3.834989,0 7.5,2.9995 7.439453,7.5933491 -0.377482,-0.3991 -0.813498,-0.7044 -1.240234,-0.9238 -1.117216,-0.5739 -2.220703,-0.6699 -2.220703,-0.6699 -0.0085,-3e-4 -0.01689,-3e-4 -0.02539,0 -0.248287,-0.01 -0.453154,0.2033 -0.453125,0.4649 l 0,7.07015 c -1.89e-4,0.2873 0.244615,0.5059 0.513672,0.4589 0,0 1.093504,-0.1866 2.199219,-0.8476 1.105715,-0.6608 2.279609,-1.8757 2.287109,-3.8143 0,-0.5646 -0.0036,-1.2332 0,-1.8339 0,-4.6941991 -3.80558,-8.4977991 -8.500001,-8.4977991 z"/>
 <path style="fill:#ffffff" d="m 11.5,4.0005 c -4.6944204,0 -8.5000001,3.8035 -8.5,8.4978 0.00362,0.6006 0,1.2693 0,1.8339 0.00754,1.9386 1.1813939,3.1535 2.2871094,3.8143 1.1057149,0.661 2.1992187,0.8476 2.1992187,0.8476 C 7.7553854,19.0411 8.0001893,18.8225 8,18.5352 l 0,-7.07015 c 2.94e-5,-0.2617 -0.2048375,-0.4719 -0.453125,-0.4649 -0.00846,-2e-4 -0.016929,-2e-4 -0.025391,0 0,0 -1.1034871,0.096 -2.2207032,0.6699 -0.4267358,0.2194 -0.8627518,0.5248 -1.2402343,0.9238 C 4,8 7.6650102,5.0005 11.5,5.0005 c 3.834989,0 7.5,2.9995 7.439453,7.59335 -0.377482,-0.3991 -0.813498,-0.7044 -1.240234,-0.9238 -1.117216,-0.5739 -2.220703,-0.6699 -2.220703,-0.6699 -0.0085,-3e-4 -0.01689,-3e-4 -0.02539,0 -0.248287,-0.01 -0.453154,0.2033 -0.453125,0.4649 l 0,7.07015 c -1.89e-4,0.2873 0.244615,0.5059 0.513672,0.4589 0,0 1.093504,-0.1866 2.199219,-0.8476 1.105715,-0.6608 2.279609,-1.8757 2.287109,-3.8143 0,-0.5646 -0.0036,-1.2332 0,-1.8339 0,-4.6942 -3.80558,-8.4978 -8.500001,-8.4978 z"/>
 <path style="opacity:0.2;fill:#ffffff" d="M 11.5 2 C 5.72529 2 0.99999988 6.7224212 1 12.498047 L 1 12.503906 L 1 12.509766 C 1.0009432 12.666159 0.99986457 12.833247 1 12.998047 C 0.99999988 7.2224218 5.72529 2.5 11.5 2.5 C 17.274739 2.5 22 7.2225657 22 12.998047 C 22.000135 12.833235 21.999062 12.666212 22 12.509766 L 22 12.503906 L 22 12.498047 C 22 6.7225651 17.274739 2 11.5 2 z M 7.7910156 9.0234375 C 7.6306911 9.177149 7.4771908 9.3381589 7.3339844 9.5117188 L 7.3476562 9.5078125 L 7.4101562 9.5019531 L 7.4746094 9.5 C 7.4798524 9.4998761 7.4849944 9.5000914 7.4902344 9.5 C 8.8969563 9.4603372 10.000147 10.659155 10 11.964844 L 10 11.464844 C 10.000136 10.255071 9.0490814 9.1496442 7.7910156 9.0234375 z M 15.210938 9.0253906 C 13.938897 9.1469991 12.999866 10.25975 13 11.464844 L 13 11.964844 C 12.999855 10.658855 14.098054 9.4441502 15.533203 9.5019531 C 15.538403 9.5021011 15.543628 9.5017709 15.548828 9.5019531 L 15.599609 9.5039062 L 15.652344 9.5078125 C 15.652344 9.5078125 15.665954 9.5117141 15.666016 9.5117188 C 15.523404 9.3388807 15.370529 9.1785479 15.210938 9.0253906 z"/>
</svg>
